X:1
T: Gower Wassail
N:
C:
S:
A:
O:
R:
M:9/8
K:Am
I:speed 190
%W:           A
% voice 1 (1 lines, 15 notes)
K:Am
M:9/8
L:1/16
E4 |A6 A6 B4 A2 G12 A4 B2 c4 B2 c6 d6 B12 c4 B2 |
%W:
% voice 1 (1 lines, 14 notes)
A6 A6 B6 c2 d2 c2 B6 A6 G6 E6 E6 E12 E4 A2 |
%W:
% voice 1 (1 lines, 14 notes)
A6 A6 B4 A2 G12 A4 B2 c4 B2 c6 d6 B12 c4 B2 |
%W:
% voice 1 (1 lines, 15 notes)
A6 A6 B6 c2 d2 c2 B6 A6 G6 E6 E6 E6 D6 C4 D2 |
%W:         B
% voice 1 (1 lines, 18 notes)
E6 E4 G2 F4 E2 D6 D4 ^F2 E4 D2 C6 C4 E2 D4 C2 B,12 A,4 B,2 |
%W:
% voice 1 (1 lines, 14 notes)
C2 D2 C2 B,6 C4 D2 F6 E6 D6 E6 A6 G4 A2 A12 ||
